X:1
T:It Is Mine
T:William Edie Marks
T:It Is Mine
T:Public Domain
T:Public Domain
T:Public Domain
C:William Edie Marks
Z:Public Domain
%%score ( 1 2 ) ( 3 4 )
L:1/8
M:4/4
K:Bb
V:1 treble 
V:2 treble 
V:3 bass 
V:4 bass 
V:1
 [DF][CE] | [B,D]2 [DF]2 E2 [EG]2 | [DF][DF][DB][Ec] [Fd]2 [Fd]>[Ge] | %3
w: 1.~God’s a-|bid- ing peace is|my soul to- day, Yes, I feel|
w: 2.~He has|wrought in me a|and per- fect rest, In my rap-|
w: 3.~He has|giv- en me a|er fail- ing joy, Oh, I have|
w: 4.~Oh, the|love of God is|fort- ing my soul, For His love|
 [Fd]2 [Ec]2 [EF]2 [Ec]>[Fd] | [Ec]2 [DB]2 [DF]2 [DF][CE] | [B,D]2 [DF]2 E2 [EG]2 | %6
w: it now, yes I feel|it now; He has tak-|en all my doubts|
w: tured heart I can feel|it now; He each pass-|ing mo- ment keeps|
w: it now! oh, I have|it now! To His praise|I will my ran-|
w: is mine, yes, His love|is mine! Waves of joy|and glad- ness o’er|
 [DF][DF][DB][Ec] | [Fd]2 [Fd]>[Ge] | [Fd]2 [Ec]2 [EF]2 [Ec]2 | [DB]6 ||"^Refrain" [B,D][CE] | %11
w: fears a- way, Tho’|I can- not|tell you how. *|||
w: saved and blest, Floods|with light my|heart and brow. It|is|mine, mine,|
w: pow’rs em- ploy, And|re- new my|grate- ful vow. *|||
w: spir- it roll, Thrill-|ing me with|life di- vine. *|||
 (DDDD) (EEEE) | [DF][DF][FB][Fc] [Fd]2 [Fd]>[Ge] | [Fd]2 [Ec]2 [EF]2 [Ec]>[Fd] | %14
w: |||
w: bless- * * * èd * * *|name! He has giv- en peace, per-|fect peace to me; It|
w: |||
w: |||
 [Ec]2 [DB]2 [DF]2 [B,D][CE] | (DDDD) (EEEE) | [DF][DF][FB][Fc] [Fd]2 [Fd]>[Ge] | %17
w: |||
w: is mine, mine, bless- èd|be * * * His * * *|for all e- ter- ni- ty! *|
w: |||
w: |||
 [Fd]2 [Ec]2 [EF]2 [Ec]2 | [DB]6 |] %19
w: ||
w: ||
w: ||
w: ||
V:2
 x2 | x4 E2 x2 | x8 | x8 | x8 | x4 E2 x2 | x4 | x4 | x8 | x6 || x2 | F4 G4 | x8 | x8 | x8 | F4 G4 | %16
w: |in||||and|||||||||||
w: |sweet||||me||||||be His||||name! Mine|
w: |nev-||||somed|||||||||||
w: |com-||||my|||||||||||
 x8 | x8 | x6 |] %19
w: |||
w: |||
w: |||
w: |||
V:3
 [B,,F,][B,,F,] | [B,,F,]2 [B,,B,]2 [E,G,]2 [E,B,]2 | %2
w: ~ ~|~ ~ ~ ~|
 [B,,B,][B,,B,][B,,F,][B,,F,] [B,,B,]2 [B,,B,]>[B,,B,] | [F,B,]2 [F,A,]2 [F,A,]2 [F,A,]>F, | %4
w: ~ ~ ~ ~ ~ ~ ~|~ ~ ~ ~ ~|
 [B,,F,]2 [B,,F,]2 [B,,B,]2 [B,,B,][B,,B,] | [B,,F,]2 [B,,_A,]2 [E,G,]2 [E,B,]2 | %6
w: ~ ~ ~ ~ ~|~ ~ ~ ~|
 [B,,B,][B,,B,][B,,F,][B,,F,] | [B,,B,]2 [B,,B,]>[B,,B,] | [F,B,]2 [F,A,]2 [F,A,]2 [F,A,]2 | %9
w: ~ ~ ~ ~|~ ~ ~|~ ~ ~ ~|
 [B,,B,]6 || [B,,F,][B,,F,] | [B,,B,][B,,B,][B,,B,][B,,B,] [E,B,][E,B,][E,B,][E,B,] | %12
w: It|is mine,|this price- less trea- sure, ev- er ~|
 [B,,B,][B,,B,][D,B,][F,A,] B,2 [B,,B,]>[B,,B,] | [F,B,]2 [F,A,]2 [F,A,]2 [F,A,]>[F,A,] | %14
w: ~ ~ ~ ~ ~ ~ ~|~ ~ ~ ~ ~|
 [B,,F,]2 [B,,F,]2 [B,,B,]2 [B,,F,][B,,F,] | %15
w: ~ ~ ~ mine, this|
 [B,,B,][B,,B,][B,,B,][B,,B,] [E,B,][E,B,][E,B,][E,B,] | %16
w: price- less trea- sure, ev- er * *|
 [B,,B,][B,,B,][D,B,][F,A,] B,2 [B,,B,]>[E,B,] | [F,B,]2 [F,A,]2 [F,A,]2 F,2 | [B,,F,]6 |] %19
w: |||
V:4
 x2 | x8 | x8 | x15/2 F,/ | x8 | x8 | x4 | x4 | x8 | x6 || x2 | x8 | x4 B,2 x2 | x8 | x8 | x8 | %16
w: |||~|||||||||~||||
 x4 B,2 x2 | x6 F,2 | x6 |] %19
w: |||

